X: 19442
T: Jackson's
R: jig
M: 6/8
K: Gmajor
|:G2e dBG|{c}BAB dBG|G2e dBG|{B}AGA BGD|
G2e dBG|{c}BAB deg|age dBG|{B}AGA BGD:|
|:gag f2f|ede def|{a}gfg efg|aga bge|
gbg a2 g|edB deg|age dBG|AGA BGD:|

